X: 100207
M: C|
L: 1/8
K: G
uD2 |\
E2c2 c2(AF) | G2(.G>.G) G2(GA) |\
[B2G2](.[BG]>.[BG]) [B2G2](cB) | (BA)(A>A) A2(AB) |
c2(.c>.c) c2(dc) | (cB)(.B>.B) B2(.d>.d) |\
d2BG d2BG | D2(.D>.D) D2(F>G) |\
(A3B) c2AF | G4 =F4 |
E2(.G>.G) GGFG | A6 A2 |\
_B3B ABcB | (_BA)(.A>.A) A2(BA) |\
d4- dA_BG | A2(.D>.D) D2(.d>.d) |\
d4- dA_BG | A2(.D>.D) D2D2 |\
c4 (d2e2) | A6 e2 |
d4- d(BcA) | GG/G/GG AA/A/ AA |\


